X:19029
T:Xiraldilla (CT 249)
R:Xiraldilla
C:Tradicional
S:Msica Tradicional Asturiana, (C) Tello & Tito. Asturies, 2001.
S:http://pagina.de/MusTradAst <telloytito@asturies.org>
N:Xiraldilla, transcrita en Trubia, ayuntamiento de Uviu.
O:Trubia (Uviu)
A:Asturies
Z:Cancioneru de Torner 249
M:3/8
L:1/8
Q:3/8=88
W:Eres morena
W:y robas los corazones;
W:no me robes el mo,
W:no me le robes,
W:no me robes el mo,
W:no lo aprisiones.
K:G
|c2 c|cBc|(d>c)B|cBA|(B>A)G-|G2 z|
|: A2 A|AGA|(B>A)G|AGF|G2 G-|G2 z :||
